!!!OTL-incipit: NUN WILL ICH EUCH WAS NEUES ERZAEHLEN
!!!ARE: Europa, Mitteleuropa, Deutschland
!!!SCT: Z0118
!!!TXL: @@DE
!!!YEM: Copyright 1995, estate of Helmut Schaffrath.
**kern	**text
*ICvox	*
*M2/4	*
*k[b-]	*
*F:	*
!LO:TX:a:t=Fliegendes Blatt.	!
{8f	Nun
=1	=1
4f	will
4f	ich
=2	=2
4f	euch
8eL	was
8fJ	.
=3	=3
4g	Neues
8f	.
8g	er-
=4	=4
8aL	-ʒäh-
8gJ	.
8f}	-len,
{8g	von
=5	=5
4a	dieſem
8a	.
8a	und
=6	=6
4a	je-
8g	-nem,
8a	und
=7	=7
4b-	nichts
8aL	ver-
8b-J	.
=8	=8
8ccL	-heh-
8b-J	.
8a}	-len,
{8cc	und
=9	=9
8ddL	will
8ccJ	.
8ddL	auch
8eeJ	.
=10	=10
8ffL	gar
8eeJ	.
8ddL	nicht
8ccJ	.
=11	=11
(4b-/	lü-
4a)	.
=12	=12
4g}	-gen;
{8gL	im
8aJ	.
=13	=13
4b-	ganʒen
8ccL	.
8b-J	.
=14	=14
4a	Land
8gL	als
8aJ	.
=15	=15
4b-	ehrlich
8cc	.
8b-	be-
=16	=16
4a}	-kannt,
{4cc	wie
=17	=17
4ff	könnt
8cc	ich
8a	da
=18	=18
4cc	je-
8a	-mand
8f	be-
=19	=19
2cc	-trü-
=20	=20
4f	-gen?
8r}	.
==	==
!!!AGN: Erzaehlung, lustige Romanze, Unsinns - Verse
!!!ONB: ESAC (Essen Associative Code) Database: ZUCCAL
!!!AMT: simple duple
!!!AIN: vox
!!!EED: Helmut Schaffrath
!!!EEV: 1.0
!!!GTL: II. Erzahlungen, lustige Romanzen, Kinder-Lieder und episch-lyrische Volks-Lieder.
!!!URL-scan: https://www.digitale-sammlungen.de/de/view/bsb11160571?page=225
!!!ENC: Anna Maria Matuszewska
!!!EEV: 2025/01/27
*-	*-
